X:1
T:Title
%%score 1 2 3
L:1/8
M:3/2
K:C
V:1 treble nm="Part_1"
V:2 treble-8 nm="Part_2"
V:3 treble-8 nm="Part_3"
V:1
 G4 G4 A4 | B2 c2 d6 c2 | A4 G4 A2 B2 | c6 B2 B2 A2 | A2 G2 E4 z4 | ^F4 F4 F4 | G4 d6 c2 | %7
 B4 A6 G2 | G6 ^F2 G2 E2 | G4 z4 B4 | c2 d2 e6 d2 | c4 z4 A4 | B2 c2 d6 A2 | B2 e2 d2 c2 B2 A2 | %14
 c12 | z12 | A4 A4 A2 F2 | E4 C4 z4 | G4 G4 A2 B2 | c4 A6 G2 | B2 c2 d6 B2 | G4 z4 A2 B2 | %22
 c4 B6 A2 | A6 ^G2 G2 ^F2 | A12 | z4 z4 c4 | B4 d6 c2 | c4 B6 A2 | A4 G4 c4 | B4 A6 G2 | %30
 G4 ^F4 G2 E2 | G4 z2 G2 B2 c2 | d4 B2 G2 A2 G2 | E4 z4 E4 | F4 G2 A2 _B2 c2 | _B2 G2 z2 G2 F2 E2 | %36
 G12 |] %37
V:2
 c4 c4 A4 | G8 A4 | c8 f4 | e4 d8 | c8 z4 | d4 d4 d4 | G8 c4 | d8 G4 | B4 A8 | G12 | A8 B4 | %11
 c8 d4 | g8 f4 | e2 c4 e2 d4 | c12- | c8 z4 | d4 d4 d4 | g8 f4 | e8 d4 | c8 c4 | G12 | c12 | %22
 d8 c4- | c4 B8 | A12- | A8 z4 | G4 G4 G4 | d8 d4 | c8 A4 | G8 c4 | B4 A8 | G12- | G12 | c12 | %34
 d8 c4 | G4 _B4 A4 | G12 |] %37
V:3
 c2 d2 e4 z2 c2 | d4 B2 d2 c2 e2 | A4 e4 z2 d2 | c4 G8 | A4 A8 | z12 | d4 d4 A4 | G4 f6 e2 | %8
 d4 c2 e4 c2 | d8 z4 | c4 c4 d4 | A8 F4 | G4 z4 d4 | g2 e4 g2 f2 e2 | g12 | z12 | f4 f4 d4 | %17
 c4 e6 d2 | c8 f4 | g4 e6 d2 | d12 | d4 e2 f2 g4 | f6 e2 e4 | e2 f2 e2 d2 ^f4 | e12- | e8 z4 | %26
 e2 f2 g6 e2 | f8 f2 d2 | e8 f4 | g4 f2 e4 c2 | d4 c6 B2 | d4 g6 f2 | e4 d6 G2 | A4 F4 z4 | %34
 B6 f4 e2 | d2 e4 d2 c4 | d12 |] %37

